!!!!SEGMENT: pl-kk--kk-i-1--041_anonim--responsum-accepit-simeon.krn
!!!cenid: 15xx:754
!!!COM: Anonim
!!!COM-rismid: pe30004985
!!!CDT:
!!!CNT:
!!!OTL: Responsum accepit Simeon
!!!PDT:
!!!AGN:
!!!SMS-siglum: PL-Kk
!!!SMS-shelfmark: Kk.I.1
!!!SMS-shelfwork: 041 W
!!!SMS-variant:
!!!SMS-altvar:
!!!NIFC-rismid: 300257995
!!!URL-scan: http://repozytorium.nifc.pl/skany/pl-kk-nut--i-1
!!!ONB-nifc: UWAGA: Cantus (s. 139v-140r, skan 0142), Altus (s. 134v-135r, skan 0328), Tenor (s. 114v-115r, skan 0505), Bassus (s. 127r-v, skan 0689-0690).
**kern	**text	**kern	**text	**text	**kern	**text	**kern	**text
*part4	*part4	*part3	*part3	*part3	*part2	*part2	*part1	*part1
*staff4	*staff4	*staff3	*staff3	*staff3	*staff2	*staff2	*staff1	*staff1
*I"BASSVS	*	*I"TENOR	*	*	*I"ALTVS	*	*I"CANTVS	*
*I'B	*	*I'T	*	*	*I'A	*	*I'S	*
*Ibass	*	*Itenor	*	*	*Ialto	*	*Isoprn	*
*ICvox	*	*ICvox	*	*	*ICvox	*	*ICvox	*
*clefF4	*	*clefC4	*	*	*clefC4	*	*clefC3	*
*k[]	*	*k[]	*	*	*k[]	*	*k[]	*
*C:	*	*C:	*	*	*C:	*	*C:	*
*M2/1	*	*M2/1	*	*	*M2/1	*	*M2/1	*
*met(C)	*	*met(C)	*	*	*met(C)	*	*met(C)	*
*all\middle	*	*all\middle	*	*	*all\middle	*	*all\middle	*
=1-	=1-	=1-	=1-	=1-	=1-	=1-	=1-	=1-
!	!	!LO:TX:t=P:problem=tekst "Optimam partem" dopisany innym tuszem i mniej kaligraficznym duktem	!	!	!	!	!	!
1D	Re-	1D	Re-	O-	1A	Re-	1d	Re-
*	*	*lig	*	*	*	*	*	*
1D	-ſpo(n)-	1F	-ſpon-	.	2.A/	-ſpon-	2d/	-ſpon-
.	.	.	.	.	.	.	1f\	.
.	.	.	.	.	4B/	.	.	.
=2-	=2-	=2-	=2-	=2-	=2-	=2-	=2-	=2-
1C	-ſum	1G	.	.	1c	.	.	.
.	.	.	.	.	.	.	4e/	-ſum
.	.	.	.	.	.	.	4d/	.
*	*	*Xlig	*	*	*	*	*	*
1C	ac-	1G	-ſu(m)	-pti-	2c\	-ſum	2e\	.
.	.	.	.	.	1e\	ac-	4c/	ac-
.	.	.	.	.	.	.	4d/	.
=3-	=3-	=3-	=3-	=3-	=3-	=3-	=3-	=3-
2.C/	-ce-	1G	ac-	-ma(m)	.	.	4e\	.
.	.	.	.	.	.	.	4f\	.
.	.	.	.	.	4d\	.	2g\	.
4D/	.	.	.	.	4c\	.	.	.
*	*	*lig	*	*	*	*	*	*
1E	.	1G	-ce-	par-	2B\	-ce-	2e\	.
.	.	.	.	.	2c\	-pit	1g\	.
=4-	=4-	=4-	=4-	=4-	=4-	=4-	=4-	=4-
1D	-pit	1A	.	.	1d	.	.	.
.	.	.	.	.	.	.	2f\	-ce-
*	*	*Xlig	*	*	*	*	*	*
2GG/	Si-	1G	.	.	2d\	ſi-	2g\	-pit
2C/	-me-	.	.	.	2.e\	-me-	2e\	Si-
=5-	=5-	=5-	=5-	=5-	=5-	=5-	=5-	=5-
*lig	*	*	*	*	*	*	*	*
!	!	!	!	!	!	!	!LO:SIC:v:l:s==me-	!
1D	-on	1F	-pit	.	.	.	1f	-m(ae)-
.	.	.	.	.	4d\	.	.	.
.	.	.	.	.	1d	.	.	.
*	*	*lig	*	*	*	*	*	*
*	*	*	*	*	*	*	*custos:g	*
1E	.	1G	si-	.	.	.	2e\	-on
*	*	*	*	*	*	*	*	*ij
*	*	*	*	*	*custos:d	*	*	*
!	!	!	!	!	!	!	!LO:LB:g=original	!
.	.	.	.	.	2c\	.	1g\	ac-
*Xlig	*	*	*	*	*	*	*	*
=6-	=6-	=6-	=6-	=6-	=6-	=6-	=6-	=6-
*	*ij	*	*	*	*	*	*	*
!	!	!	!	!	!LO:LB:g=original	!	!	!
2.D/	Si-	1A	.	.	1.d	-on	.	.
.	.	.	.	.	.	.	2f\	-ce-
4C/	.	.	.	.	.	.	.	.
*	*	*Xlig	*	*	*	*	*	*
*	*	*lig	*	*	*	*	*	*
2BB/	-me-	1G	-me-	-te(m)	.	.	2d/	-pit
2C/	.	.	.	.	4c\	.	2e\	Si-
.	.	.	.	.	4B\	.	.	.
=7-	=7-	=7-	=7-	=7-	=7-	=7-	=7-	=7-
*	*	*	*	*	*	*ij	*	*
*custos:E	*	*	*	*	*	*	*	*
!	!	!	!	!	!	!	!LO:SIC:v:l:s==me-	!
1D	-on	1F	.	.	2A/	ſi-	1f	-m(ae)-
.	.	.	.	.	2d\	.	.	.
*lig	*Xij	*Xlig	*	*	*lig	*	*	*
!LO:LB:g=original	!	!	!	!	!	!	!	!
1E	.	1G	.	e-	1B	-me-	1e	-on
*	*	*	*	*	*	*	*	*Xij
=8-	=8-	=8-	=8-	=8-	=8-	=8-	=8-	=8-
*	*	*lig	*	*	*	*	*	*
1AA	.	1A	-on	.	1c	.	2r	.
.	.	.	.	.	.	.	2e\	a
*Xlig	*	*	*	*	*Xlig	*	*	*
*	*	*	*	*	*lig	*	*	*
2r	.	1D	.	.	1d	-on	1f	ſpi-
2D/	a	.	.	.	.	.	.	.
*	*	*Xlig	*	*	*	*Xij	*	*
=9-	=9-	=9-	=9-	=9-	=9-	=9-	=9-	=9-
1F	ſpi-	1D	a	-le-	1A	.	2d/	-ri-
.	.	.	.	.	.	.	2d/	-tu
*	*	*	*	*	*Xlig	*	*	*
2E/	-ri-	1G	ſpi-	.	1r	.	1e	ſ(an)-
2C/	-tu	.	.	.	.	.	.	.
=10-	=10-	=10-	=10-	=10-	=10-	=10-	=10-	=10-
*	*	*custos:E	*	*	*	*	*	*
1D	ſa(n)-	1F	-ri-	.	2r	.	1A	-cto,
.	.	.	.	.	2A/	a	.	.
!	!	!LO:PB:g=original	!	!	!	!	!	!
1AA	-cto,	1E	-tu	.	1c	ſpi-	2r	.
*	*	*	*	*	*	*	*	*ij
.	.	.	.	.	.	.	2e\	a
=11-	=11-	=11-	=11-	=11-	=11-	=11-	=11-	=11-
2r	.	1F	ſan-	.	2A/	-ri-	2c/	ſpi-
*	*ij	*	*	*	*	*	*	*
2D/	a	.	.	.	2F/	-tu	2.f\	-ri-
*	*	*lig	*	*	*	*	*	*
1F	ſpi-	1D	-cto	.	1A	ſ(an)-	.	.
.	.	.	.	.	.	.	4e\	.
.	.	.	.	.	.	.	4d/	.
.	.	.	.	.	.	.	4c/	.
=12-	=12-	=12-	=12-	=12-	=12-	=12-	=12-	=12-
2D/	-ri-	1F	.	.	2D/	-cto	2d/	.
*	*	*	*	*	*	*ij	*	*
2D/	-tu	.	.	.	2A/	a	2f\	-tu
*	*	*Xlig	*	*	*	*	*	*
*	*	*	*	*	*	*	*custos:d	*
4E\	ſa(n)-	1C	no(n)	-git	1c	ſpi-	1e	ſ(an)-
4F\	.	.	.	.	.	.	.	.
4G\	.	.	.	.	.	.	.	.
4E\	.	.	.	.	.	.	.	.
=13-	=13-	=13-	=13-	=13-	=13-	=13-	=13-	=13-
!	!	!LO:SIC:v:l:s=vi-:verse 1	!	!	!	!	!LO:PB:g=original	!
2.F\	.	1D	ui-	ſi-	2A/	-ri-	1d	-cto,
.	.	.	.	.	2F/	-tu	.	.
4E\	.	.	.	.	.	.	.	.
*	*	*lig	*	*	*	*	*	*Xij
1D	.	1F	-ſu-	.	2A/	ſ(an)-	2r	.
.	.	.	.	.	2D/	-cto	2B/	non
*	*	*	*	*	*	*Xij	*	*
=14-	=14-	=14-	=14-	=14-	=14-	=14-	=14-	=14-
2C/	-cto	1G	.	.	0r	.	2c/	.
*	*Xij	*	*	*	*	*	*	*
!	!	!	!	!	!	!	!LO:SIC:v:l:s=vi-	!
1C	no(n)	.	.	.	.	.	2.e\	ui-
*	*	*Xlig	*	*	*	*	*	*
.	.	1A	.	.	.	.	.	.
.	.	.	.	.	.	.	4d\	-ſu-
*custos:E	*	*	*	*	*	*	*	*
!LO:SIC:v:l:s=vi-	!	!	!	!	!	!	!	!
2D/	ui-	.	.	.	.	.	1d\	.
=15-	=15-	=15-	=15-	=15-	=15-	=15-	=15-	=15-
!LO:LB:g=original	!	!	!	!	!	!	!	!
0E	-ſu-	1G	-ru(m)	.	1r	.	.	.
.	.	.	.	.	.	.	4c/	.
.	.	.	.	.	.	.	4B/	.
*	*	*lig	*	*	*	*	*	*
*	*	*	*	*	*custos:G	*	*	*
.	.	1G	ſe	-bi	2r	.	1c	.
!	!	!	!	!	!LO:PB:g=original	!	!	!
.	.	.	.	.	2G/	no(n)	.	.
=16-	=16-	=16-	=16-	=16-	=16-	=16-	=16-	=16-
!	!	!	!	!	!LO:SIC:v:l:s=vi-	!	!	!
1D	-ru(m)	1F	.	.	1A	ui-	1d	-rum,
*	*	*Xlig	*	*	*	*	*	*
2C/	ſe	1G	mor-	Ma-	2c\	.	2r	.
2G\	mor-	.	.	.	2d\	-ſu-	2B/	ſe
=17-	=17-	=17-	=17-	=17-	=17-	=17-	=17-	=17-
*	*	*lig	*	*	*	*	*	*
4C/	.	1c	-te(m)	-ri-	1e	.	2.G/	mor-
4D/	.	.	.	.	.	.	.	.
4E\	-tem	.	.	.	.	.	.	.
4F\	.	.	.	.	.	.	4A/	.
2G\	.	1B	.	.	2d\	-ru(m)	4B/	.
.	.	.	.	.	.	.	4c/	.
2GG/	.	.	.	.	2B/	ſe	2.d/	.
*	*	*Xlig	*	*	*	*	*	*
=18-	=18-	=18-	=18-	=18-	=18-	=18-	=18-	=18-
*	*	*lig	*	*	*	*	*	*
2AA/	.	1c	.	.	2A/	.	.	.
.	.	.	.	.	.	.	4c/	.
2C/	.	.	.	.	4G/	mor-	1c	.
.	.	.	.	.	4F/	.	.	.
1GG	.	1d	.	.	1G	.	.	.
.	.	.	.	.	.	.	2B/	.
*	*	*Xlig	*	*	*	*	*	*
=19-	=19-	=19-	=19-	=19-	=19-	=19-	=19-	=19-
2r	.	1c	.	-a	2A/	.	1c	-tem,
2C/	ni-	.	.	.	2G/	.	.	.
*	*	*	*	*	*	*	*custos:c	*
2D/	-ſi	1A	ni-	quae	1F	.	2r	.
!LO:SIC:v:l:s=vi-	!	!	!	!	!	!	!LO:LB:g=original	!
2F\	ui-	.	.	.	.	.	2c/	ni-
=20-	=20-	=20-	=20-	=20-	=20-	=20-	=20-	=20-
2E/	.	1c	-ſi	non	2G/	-tem	2e\	-ſi
!	!	!	!	!	!	!	!LO:SIC:v:l:s=vi-	!
4C/	-de-	.	.	.	1c	ni-	2e\	ui-
4D/	-ret	.	.	.	.	.	.	.
!	!	!LO:SIC:v:l:s=vi-verse 1	!	!	!	!	!	!
4E/	.	1G	ui-	au-	.	.	1e	-de-
4F\	.	.	.	.	.	.	.	.
2.G\	.	.	.	.	2B/	-ſi	.	.
=21-	=21-	=21-	=21-	=21-	=21-	=21-	=21-	=21-
*	*	*lig	*	*	*	*	*	*
!	!	!	!	!	!LO:SIC:v:l:s=vi-	!	!	!
.	.	1A	-de-	.	2A/	ui-	0d	-ret
*custos:F	*	*	*	*	*	*	*	*
4F\	.	.	.	.	.	.	.	.
!LO:PB:g=original	!	!	!	!	!	!	!	!
2F\	.	.	.	.	4d\	-de-	.	.
.	.	.	.	.	4c\	.	.	.
*	*	*custos:A	*	*	*	*	*	*
2G\	.	1G	.	.	4B/	.	.	.
*	*	*	*	*	*custos:G	*	*	*
.	.	.	.	.	4A/	.	.	.
!	!	!	!	!	!LO:LB:g=original	!	!	!
2GG/	ni-	.	.	.	1G/	.	.	.
*	*	*Xlig	*	*	*	*	*	*
=22-	=22-	=22-	=22-	=22-	=22-	=22-	=22-	=22-
*	*	*	*	*	*	*	*	*ij
!	!	!LO:LB:g=original	!	!	!	!	!	!
1D	-ſi	1A	.	-fe-	.	.	1d	ni-
.	.	.	.	.	2F/	.	.	.
!LO:SIC:v:l:s=vi-	!	!	!	!	!	!	!	!
2E/	ui-	1G	-ret	-re-	1G	-ret	2B/	-ſi
!	!	!	!	!	!	!	!LO:SIC:v:l:s=vi-	!
2C/	-de-	.	.	.	.	.	2.e\	ui-
=23-	=23-	=23-	=23-	=23-	=23-	=23-	=23-	=23-
*	*	*	*	*	*lig	*	*	*
1D	-ret	1F	.	-tur	1D	Chri-	.	.
.	.	.	.	.	.	.	4d\	.
.	.	.	.	.	.	.	1d	-de-
*lig	*	*	*	*	*	*	*	*
1AA	.	1E	.	ab	1A	.	.	.
.	.	.	.	.	.	.	2c/	.
*	*	*	*	*	*Xlig	*	*	*
=24-	=24-	=24-	=24-	=24-	=24-	=24-	=24-	=24-
*	*	*lig	*	*	*	*	*	*
1D	.	1D	Chri-	e-	2A/	-ſtu(m)	2d\	-ret
*	*	*	*	*	*	*	*	*Xij
.	.	.	.	.	1d	.	1f	chri-
*Xlig	*	*	*	*	*	*	*	*
*lig	*	*	*	*	*	*	*	*
1D	Chri-	1A	.	.	.	.	.	.
.	.	.	.	.	4c\	Do-	4e\	.
.	.	.	.	.	4B\	.	4d\	.
*	*	*Xlig	*	*	*	*	*	*
=25-	=25-	=25-	=25-	=25-	=25-	=25-	=25-	=25-
*	*	*lig	*	*	*	*	*	*
1F	.	1A	.	-a	2A/	.	1c	.
.	.	.	.	.	2F/	-mi-	.	.
*Xlig	*	*	*	*	*	*	*	*
1.C	-ſtu(m)	1c	.	.	2G/	-(ni),	2c/	-ſtu(m)
*	*	*	*	*	*	*ij	*	*
.	.	.	.	.	2G/	Chri-	2.e\	.
*	*	*Xlig	*	*	*	*	*	*
=26-	=26-	=26-	=26-	=26-	=26-	=26-	=26-	=26-
.	.	1G	-ſtu(m)	in	2c\	-ſtu(m)	.	.
.	.	.	.	.	.	.	4d\	do-
*	*	*	*	*	*	*	*custos:c	*
2D/	Do-	.	.	.	2.B\	Do-	1d	.
*	*	*lig	*	*	*	*	*	*
1E	.	1G	Do-	(ae)-	.	.	.	.
.	.	.	.	.	4A/	.	.	.
!	!	!	!	!	!	!	!LO:LB:g=original	!
.	.	.	.	.	1G/	.	2c/	-mi-
=27-	=27-	=27-	=27-	=27-	=27-	=27-	=27-	=27-
1D	-mi-	1A	.	-ter-	.	.	2d/	-ni
.	.	.	.	.	2F/	-mi-	2.d/	Chri-
!	!	!LO:TX:a:t=2:note=podwojenie wartości rytmicznej?	!	!	!	!	!	!
1GG	-ni	0G	-mi-	.	2G/	-(ni)	.	.
.	.	.	.	.	.	.	4c/	.
*	*	*	*	*	*	*Xij	*	*
.	.	.	.	.	2.d\	Chri-	4B/	.
.	.	.	.	.	.	.	4A/	.
*	*	*Xlig	*	*	*	*	*	*
=28-	=28-	=28-	=28-	=28-	=28-	=28-	=28-	=28-
2r	.	.	.	-num	.	.	2G/	.
.	.	.	.	.	4c\	.	.	.
2.G\	.	.	.	.	4B/	.	2G/	-ſtum
*	*	*	*	*	*custos:G	*	*	*
.	.	.	.	.	4A/	.	.	.
!	!	!	!	!	!LO:LB:g=original	!	!	!
.	.	1%5G;l\	-ni	.	2G/	-ſtum	2.g\	.
4F\	Do-	.	.	.	.	.	.	.
4E/	.	.	.	.	1c\	.	.	.
*custos:C	*	*	*	*	*	*	*	*
4D/	.	.	.	.	.	.	4f\	do-
=29-	=29-	=29-	=29-	=29-	=29-	=29-	=29-	=29-
!LO:LB:g=original	!	!	!	!	!	!	!	!
2C/	.	.	.	.	.	.	2e\	.
2BB/	.	.	.	.	2d\	Do-	2d\	.
2.C/	.	.	.	.	2e\	.	2c/	.
.	.	.	.	.	1c\	.	2e\	-mi-
4C/	-mi-	.	.	.	.	.	.	.
=30-	=30-	=30-	=30-	=30-	=30-	=30-	=30-	=30-
0GG;l	-ni	.	.	.	.	.	0d;l	-ni.
.	.	.	.	.	4B/	-mi-	.	.
.	.	.	.	.	4A/	.	.	.
.	.	.	.	.	1B;l	-ni	.	.
==	==	==	==	==	==	==	==	==
*-	*-	*-	*-	*-	*-	*-	*-	*-
!!!system-decoration: [(s1,s2,s3,s4)]
!!!ENC: Mateusz Solarz
!!!END: 2022-03-07
!!!AIN: 1 alto 1 bass 1 soprn 1 tenor
!!!ENC: Kamil Watkowski
!!!END: 2022-03-12
!!!RDF**kern: l = terminal long
!!!RDF**kern: > = above
!!!RDF**kern: < = below
